contributed-vectors/notally_alt.svg

<svg width="192" height="192" viewBox="0 0 192 192" fill="none" xmlns="http://www.w3.org/2000/svg">
<path d="M162.5 19.5H29.5C23.9772 19.5 19.5 23.9772 19.5 29.5V162.5C19.5 168.023 23.9772 172.5 29.5 172.5H162.5C168.023 172.5 172.5 168.023 172.5 162.5V29.5C172.5 23.9772 168.023 19.5 162.5 19.5Z" fill="#9ABEFF"/>
<rect x="33" y="40" width="125" height="12" rx="4" fill="#728DBE"/>
<rect x="33" y="64" width="125" height="12" rx="4" fill="#728DBE"/>
<rect x="33" y="89" width="79" height="12" rx="4" fill="#728DBE"/>
</svg>

<svg xmlns="http://www.w3.org/2000/svg" width="192" height="192" fill="none"><path fill="#9ABEFF" d="M162.5 19.5h-133c-5.523 0-10 4.477-10 10v133c0 5.523 4.477 10 10 10h133c5.523 0 10-4.477 10-10v-133c0-5.523-4.477-10-10-10Z"/><rect width="125" height="12" x="33" y="40" fill="#728DBE" rx="4"/><rect width="125" height="12" x="33" y="64" fill="#728DBE" rx="4"/><rect width="79" height="12" x="33" y="89" fill="#728DBE" rx="4"/></svg>
